X: 8352
T: Counselor's
R: jig
M: 6/8
K: Amajor
GBd cAc|BGB def|gdB cAc|BGB AFD|
GBd cAc|BGB def|gdB cAc|BGF G2:|
gag fef|gdB GBd|gag fef|def g2 a|
bgb afa|gfe dBG|GBd cBA|BGG G2:|
Ace dBd|cAc efg|aec dBd|cAc BGE|
Ace dBd|cAc efg|aec dBd|cAG A2:|
aba gfg|aec Ace|aba gfg|efg a2 b|
c'ac' bgb|agf ecA|Ace dcB|cAA A2:|

